32x32/apps/gps.svg

<svg height="32" width="32" xmlns="http://www.w3.org/2000/svg"><path d="m13 3v2.39a12 12 0 0 0 -8.605 8.61h-2.395v6h2.39a12 12 0 0 0 8.61 8.605v2.395h6v-2.39a12 12 0 0 0 8.605-8.61h2.395v-6h-2.39a12 12 0 0 0 -8.61-8.605v-2.395z" opacity=".2"/><path d="m13 2v2.39a12 12 0 0 0 -8.605 8.61h-2.395v6h2.39a12 12 0 0 0 8.61 8.605v2.395h6v-2.39a12 12 0 0 0 8.605-8.61h2.395v-6h-2.39a12 12 0 0 0 -8.61-8.605v-2.395z" fill="#1e80ff"/><rect height="14" opacity=".2" rx="7" transform="matrix(0 -1 -1 0 0 0)" width="14" x="-24" y="-23"/><g fill="#f4f4f7"><rect height="14" rx="7" transform="matrix(0 -1 -1 0 0 0)" width="14" x="-23" y="-23"/><path d="m13 2v1h6v-1zm0 2.39a12 12 0 0 0 -8.605 8.61h-2.395v1h2.395a12 12 0 0 1 8.605-8.61zm6 .005v1a12 12 0 0 1 8.61 8.605h2.39v-1h-2.39a12 12 0 0 0 -8.61-8.605z" opacity=".2"/></g></svg>

<svg height="32" width="32" xmlns="http://www.w3.org/2000/svg">
    <path d="M13 3v2.39A12 12 0 0 0 4.395 14H2v6h2.39A12 12 0 0 0 13 28.605V31h6v-2.39A12 12 0 0 0 27.605 20H30v-6h-2.39A12 12 0 0 0 19 5.395V3z" opacity=".2"/>
    <path d="M13 2v2.39A12 12 0 0 0 4.395 13H2v6h2.39A12 12 0 0 0 13 27.605V30h6v-2.39A12 12 0 0 0 27.605 19H30v-6h-2.39A12 12 0 0 0 19 4.395V2z" fill="#1e80ff"/>
    <rect height="14" opacity=".2" rx="7" transform="matrix(0 -1 -1 0 0 0)" width="14" x="-24" y="-23"/>
    <g fill="#f4f4f7">
        <rect height="14" rx="7" transform="matrix(0 -1 -1 0 0 0)" width="14" x="-23" y="-23"/>
        <path d="M13 2v1h6V2zm0 2.39A12 12 0 0 0 4.395 13H2v1h2.395A12 12 0 0 1 13 5.39zm6 .005v1A12 12 0 0 1 27.61 14H30v-1h-2.39A12 12 0 0 0 19 4.395z" opacity=".2"/>
    </g>
</svg>
